outputs/icons/toggle/check_box_round.svg

<svg xmlns="http://www.w3.org/2000/svg" width="1200" height="1200" fill="none"><g clip-path="url(#a)"><path fill="#000" d="M950 150H250c-55 0-100 45-100 100v700c0 55 45 100 100 100h700c55 0 100-45 100-100V250c0-55-45-100-100-100M535.5 814.5c-19.5 19.5-51 19.5-70.5 0L285.5 635c-19.5-19.5-19.5-51 0-70.5s51-19.5 70.5 0l144 144 344-344c19.5-19.5 51-19.5 70.5 0s19.5 51 0 70.5z"/></g><defs><clipPath id="a"><path fill="#fff" d="M0 0h1200v1200H0z"/></clipPath></defs></svg>

<svg width="1200" height="1200" viewBox="0 0 1200 1200" fill="none" xmlns="http://www.w3.org/2000/svg"><g clip-path="url(#clip0_238_2777)"><path d="M950 150H250C195 150 150 195 150 250V950C150 1005 195 1050 250 1050H950C1005 1050 1050 1005 1050 950V250C1050 195 1005 150 950 150ZM535.5 814.5C516 834 484.5 834 465 814.5L285.5 635C266 615.5 266 584 285.5 564.5C305 545 336.5 545 356 564.5L500 708.5L844 364.5C863.5 345 895 345 914.5 364.5C934 384 934 415.5 914.5 435L535.5 814.5Z" fill="black"/></g><defs><clipPath id="clip0_238_2777"><path width="24" fill="white" d="M0 0H1200V1200H0V0z"/></clipPath></defs></svg>
